svg/file_table_box_multiple.svg

<?xml version="1.0" encoding="UTF-8"?><!DOCTYPE svg PUBLIC "-//W3C//DTD SVG 1.1//EN" "http://www.w3.org/Graphics/SVG/1.1/DTD/svg11.dtd"><svg xmlns="http://www.w3.org/2000/svg" xmlns:xlink="http://www.w3.org/1999/xlink" version="1.1" id="mdi-file-table-box-multiple" width="24" height="24" viewBox="0 0 24 24"><path d="M3 5V21H19V23H3C1.9 23 1 22.1 1 21V5H3M21 1H7C5.89 1 5 1.89 5 3V17C5 18.11 5.9 19 7 19H21C22.11 19 23 18.11 23 17V3C23 1.89 22.1 1 21 1M11 16H8V14H11V16M11 13H8V11H11V13M11 10H8V8H11V10M15 16H12V14H15V16M15 13H12V11H15V13M15 10H12V8H15V10Z" /></svg>

<svg xmlns="http://www.w3.org/2000/svg" viewBox="0 0 24 24"><path d="M3 5v16h16v2H3c-1.1 0-2-.9-2-2V5zm18-4H7c-1.11 0-2 .89-2 2v14a2 2 0 0 0 2 2h14c1.11 0 2-.89 2-2V3a2 2 0 0 0-2-2M11 16H8v-2h3zm0-3H8v-2h3zm0-3H8V8h3zm4 6h-3v-2h3zm0-3h-3v-2h3zm0-3h-3V8h3z"/></svg>
